icons/evolvere-blue-folders-flat-vivid-dark-fallback/apps/64/accessibility.svg

<?xml version="1.0" encoding="UTF-8" standalone="no"?>
<!-- Created with Inkscape (http://www.inkscape.org/) -->

<svg
   xmlns:dc="http://purl.org/dc/elements/1.1/"
   xmlns:cc="http://creativecommons.org/ns#"
   xmlns:rdf="http://www.w3.org/1999/02/22-rdf-syntax-ns#"
   xmlns:svg="http://www.w3.org/2000/svg"
   xmlns="http://www.w3.org/2000/svg"
   xmlns:sodipodi="http://sodipodi.sourceforge.net/DTD/sodipodi-0.dtd"
   xmlns:inkscape="http://www.inkscape.org/namespaces/inkscape"
   width="64"
   height="64"
   id="svg13094"
   version="1.1"
   inkscape:version="0.91+devel r"
   sodipodi:docname="accessibility.svg">
  <sodipodi:namedview
     id="base"
     pagecolor="#ffffff"
     bordercolor="#666666"
     borderopacity="1.0"
     inkscape:pageopacity="0"
     inkscape:pageshadow="2"
     inkscape:zoom="11.313709"
     inkscape:cx="28.786888"
     inkscape:cy="33.144469"
     inkscape:document-units="px"
     inkscape:current-layer="svg13094"
     showgrid="true"
     inkscape:snap-bbox="true"
     inkscape:bbox-paths="true"
     inkscape:bbox-nodes="true"
     inkscape:snap-bbox-edge-midpoints="true"
     inkscape:snap-bbox-midpoints="true"
     inkscape:object-paths="true"
     inkscape:snap-intersection-paths="true"
     inkscape:object-nodes="true"
     inkscape:snap-smooth-nodes="true"
     inkscape:snap-midpoints="true"
     inkscape:snap-object-midpoints="true"
     inkscape:snap-center="true"
     showguides="false"
     inkscape:guide-bbox="true"
     inkscape:window-width="1920"
     inkscape:window-height="1023"
     inkscape:window-x="-10"
     inkscape:window-y="35"
     inkscape:window-maximized="1"
     inkscape:snap-global="true"
     fit-margin-top="0"
     fit-margin-left="0"
     fit-margin-right="0"
     fit-margin-bottom="0"
     showborder="true"
     inkscape:showpageshadow="false"
     inkscape:snap-page="true">
    <inkscape:grid
       type="xygrid"
       id="grid3075"
       empspacing="5"
       visible="true"
       enabled="true"
       snapvisiblegridlinesonly="true"
       originx="1.6362304e-08px"
       originy="18px" />
    <sodipodi:guide
       orientation="0,1"
       position="-11,30"
       id="guide9148" />
    <sodipodi:guide
       orientation="1,0"
       position="32,70"
       id="guide9150" />
  </sodipodi:namedview>
  <defs
     id="defs13096" />
  <metadata
     id="metadata13099">
    <rdf:RDF>
      <cc:Work
         rdf:about="">
        <dc:format>image/svg+xml</dc:format>
        <dc:type
           rdf:resource="http://purl.org/dc/dcmitype/StillImage" />
        <dc:title></dc:title>
      </cc:Work>
    </rdf:RDF>
  </metadata>
  <path
     id="path6538"
     d="m 0,4 0,30 0,28 2,2 30,0 30,0 2,-2 L 64,34 64,4 32,4 0,4 z"
     style="color:#000000;fill:#33ac33;fill-opacity:1;fill-rule:nonzero;stroke:none;stroke-width:2.28571415;marker:none;visibility:visible;display:inline;overflow:visible;enable-background:accumulate"
     inkscape:connector-curvature="0" />
  <path
     style="color:#000000;fill:#6bec4e;fill-opacity:1;fill-rule:nonzero;stroke:none;marker:none;visibility:visible;display:inline;overflow:visible;enable-background:accumulate"
     d="M 2 0 L 0 1 L 0 4 L 19.5625 4 L 39.125 4 L 64 4 L 64 1 L 62 0 L 39.125 0 L 19.5625 0 L 2 0 z "
     id="path6688" />
  <path
     d="M 64,6 62,4 64,3 z"
     id="path3028"
     style="fill:#50cd41;fill-opacity:1"
     inkscape:connector-curvature="0" />
  <g
     id="g3043"
     inkscape:export-filename="folder.png"
     inkscape:export-xdpi="90"
     inkscape:export-ydpi="90"
     transform="translate(-0.62500009,0.082283)" />
  <g
     id="scalable"
     transform="matrix(1.0385892,0,0,1.0385892,1214.7222,1878.8121)"
     inkscape:label="#g3701"
     style="fill:#ffffff" />
  <path
     style="fill:#79ff5b;fill-opacity:1;fill-rule:nonzero"
     d="M 0,3 0,6 2,4 Z"
     id="path4298"
     inkscape:connector-curvature="0"
     sodipodi:nodetypes="cccc" />
  <path
     style="color:#000000;fill:#e9eee7;fill-opacity:1;fill-rule:nonzero;stroke:none;stroke-width:2;marker:none;visibility:visible;display:inline;overflow:visible;enable-background:accumulate"
     d="m 32,14 c -2.209138,0 -4,1.790862 -4,4 0,2.209138 1.790862,4 4,4 2.209138,0 4,-1.790862 4,-4 0,-2.209138 -1.790862,-4 -4,-4 z m -16,8 0,2 11,4 0,6 -4,18 3,0 6,-15 6,15 3,0 -4,-18 0,-6 11,-4 0,-2 -16,2 -16,-2 z"
     id="path3057"
     inkscape:connector-curvature="0" />
  <path
     style="color:#000000;fill:#003c00;fill-opacity:0.12254025;fill-rule:nonzero;stroke:none;stroke-width:2.28571415;marker:none;visibility:visible;display:inline;overflow:visible;enable-background:accumulate"
     d="M 35.3125 15.75 C 35.743797 16.388404 36 17.171573 36 18 C 36 20.209138 34.209138 22 32 22 C 31.171573 22 30.388404 21.743797 29.75 21.3125 C 30.474571 22.335113 31.651333 23 33 23 C 35.209138 23 37 21.209138 37 19 C 37 17.651333 36.335113 16.474571 35.3125 15.75 z M 49 23 L 48 23.125 L 48 24 L 37 28 L 37 34 L 41 52 L 38.59375 52 L 39 53 L 42 53 L 38 35 L 38 29 L 49 25 L 49 23 z M 17 24.375 L 17 25 L 27 28.625 L 27 28 L 17 24.375 z M 32 37 L 26 52 L 24.21875 52 L 24 53 L 27 53 L 32.6875 38.75 L 32 37 z "
     id="path3021" />
</svg>

<svg xmlns="http://www.w3.org/2000/svg" viewBox="0 0 64 64"><g color="#000"><path d="m0 4v30 28l2 2h30 30l2-2v-28-30h-32-32" fill="#33ac33"/><path d="m2 0l-2 1v3h19.563 19.563 24.875v-3l-2-1h-22.875-19.563-17.563" fill="#6bec4e"/></g><path d="m64 6l-2-2 2-1z" fill="#50cd41"/><path d="m0 3v3l2-2" fill="#79ff5b"/><g color="#000"><path d="m32 14c-2.209 0-4 1.791-4 4 0 2.209 1.791 4 4 4 2.209 0 4-1.791 4-4 0-2.209-1.791-4-4-4m-16 8v2l11 4v6l-4 18h3l6-15 6 15h3l-4-18v-6l11-4v-2l-16 2-16-2" fill="#e9eee7"/><path d="m35.31 15.75c.431.638.688 1.422.688 2.25 0 2.209-1.791 4-4 4-.828 0-1.612-.256-2.25-.688.725 1.023 1.901 1.688 3.25 1.688 2.209 0 4-1.791 4-4 0-1.349-.665-2.525-1.688-3.25m13.688 7.25l-1 .125v.875l-11 4v6l4 18h-2.406l.406 1h3l-4-18v-6l11-4v-2m-32 1.375v.625l10 3.625v-.625l-10-3.625m15 12.625l-6 15h-1.781l-.219 1h3l5.688-14.25-.688-1.75" fill="#003c00" fill-opacity=".123"/></g></svg>
